icons/type-icons/icons/application-java-archive.svg

<?xml version="1.0" encoding="UTF-8"?>
<svg id="svg2" width="22" height="22" version="1.1" xmlns="http://www.w3.org/2000/svg" xmlns:cc="http://creativecommons.org/ns#" xmlns:dc="http://purl.org/dc/elements/1.1/" xmlns:rdf="http://www.w3.org/1999/02/22-rdf-syntax-ns#">
 <metadata id="metadata3874">
  <rdf:RDF>
   <cc:Work rdf:about="">
    <dc:format>image/svg+xml</dc:format>
    <dc:type rdf:resource="http://purl.org/dc/dcmitype/StillImage"/>
   </cc:Work>
  </rdf:RDF>
 </metadata>
 <g id="layer1" transform="translate(-326 -534.36)" fill="#0070ff">
  <path id="rect5505" transform="translate(326 534.36)" d="m8 3v4h1v-4h-1zm2 1v3h1v-3h-1zm-4 1v2h1v-2h-1zm6 0v2h1v-2h-1zm-8 1v1h1v-1h-1zm10 0v1h1v-1h-1zm-11 2v6a4 3.9894 0 0 0 0 0.009766 4 3.9894 0 0 0 4 3.9902h-3v1h11v-1h-3a4 3.9894 0 0 0 4-3.9902 4 3.9894 0 0 0 0-0.009766h2c0.55401 0 1-0.44599 1-1v-3c0-0.55401-0.44599-1-1-1h-2v-1h-13zm1 1h11v5a3 3 0 0 1-3 3h-5a3 3 0 0 1-3-3v-5zm12 1h2v3h-2v-3z" stroke-width="6"/>
  <rect id="rect405" x="334.12" y="543.36" width="1" height="1"/>
  <rect id="rect405-3" x="335.12" y="544.35" width="1" height="1"/>
  <rect id="rect405-3-6" x="334.13" y="545.35" width="1" height="1"/>
  <rect id="rect405-3-6-7" x="335.12" y="546.35" width="1" height="1"/>
  <rect id="rect405-3-6-5" x="334.13" y="546.35" width="1" height="1"/>
  <rect id="rect516" x="334.13" y="546.23" width=".97266" height=".20312"/>
  <rect id="rect518" x="335.04" y="546.36" width=".14453" height=".98047"/>
  <rect id="rect1126" x="334.13" y="543.27" width=".96094" height=".10938"/>
 </g>
</svg>

<?xml version="1.0" encoding="UTF-8" standalone="no"?>
<!-- Created with Inkscape (http://www.inkscape.org/) -->

<svg
   width="22"
   version="1.1"
   height="22"
   id="svg2"
   inkscape:version="1.2.2 (b0a8486541, 2022-12-01)"
   sodipodi:docname="application-java-archive.svg"
   xmlns:inkscape="http://www.inkscape.org/namespaces/inkscape"
   xmlns:sodipodi="http://sodipodi.sourceforge.net/DTD/sodipodi-0.dtd"
   xmlns:xlink="http://www.w3.org/1999/xlink"
   xmlns="http://www.w3.org/2000/svg"
   xmlns:svg="http://www.w3.org/2000/svg"
   xmlns:rdf="http://www.w3.org/1999/02/22-rdf-syntax-ns#"
   xmlns:cc="http://creativecommons.org/ns#"
   xmlns:dc="http://purl.org/dc/elements/1.1/">
  <sodipodi:namedview
     pagecolor="#ffffff"
     bordercolor="#666666"
     borderopacity="1"
     objecttolerance="10"
     gridtolerance="10"
     guidetolerance="10"
     inkscape:pageopacity="0"
     inkscape:pageshadow="2"
     inkscape:window-width="1920"
     inkscape:window-height="1008"
     id="namedview38"
     showgrid="false"
     inkscape:zoom="32"
     inkscape:cx="4.59375"
     inkscape:cy="12.015625"
     inkscape:window-x="0"
     inkscape:window-y="0"
     inkscape:window-maximized="1"
     inkscape:current-layer="layer1"
     inkscape:showpageshadow="2"
     inkscape:pagecheckerboard="0"
     inkscape:deskcolor="#d1d1d1" />
  <defs
     id="defs3871">
    <linearGradient
       inkscape:collect="always"
       id="linearGradient4300-8">
      <stop
         style="stop-color:#f27935"
         id="stop4302-5" />
      <stop
         offset="1"
         style="stop-color:#f2784b"
         id="stop4304-7" />
    </linearGradient>
    <linearGradient
       inkscape:collect="always"
       id="linearGradient4357"
       xlink:href="#linearGradient4351"
       y1="61"
       y2="47"
       gradientUnits="userSpaceOnUse"
       x2="0" />
    <linearGradient
       inkscape:collect="always"
       id="linearGradient4410">
      <stop
         style="stop-color:#383e51"
         id="stop4412" />
      <stop
         offset="1"
         style="stop-color:#655c6f;stop-opacity:0"
         id="stop4414" />
    </linearGradient>
    <linearGradient
       inkscape:collect="always"
       id="linearGradient4427"
       xlink:href="#linearGradient4410"
       y1="31"
       y2="17"
       x1="54"
       gradientUnits="userSpaceOnUse"
       x2="40"
       gradientTransform="matrix(1 0 0 -1 -14 78)" />
    <linearGradient
       inkscape:collect="always"
       id="linearGradient4306"
       xlink:href="#linearGradient4300-8"
       y1="61"
       y2="3"
       gradientUnits="userSpaceOnUse"
       x2="0" />
    <linearGradient
       inkscape:collect="always"
       id="linearGradient4351">
      <stop
         style="stop-color:#f7ab89"
         id="stop4353" />
      <stop
         offset="1"
         style="stop-color:#f9bda3"
         id="stop4355" />
    </linearGradient>
    <linearGradient
       inkscape:collect="always"
       xlink:href="#linearGradient4410"
       id="linearGradient3444"
       y1="31"
       x1="54"
       y2="17"
       gradientUnits="userSpaceOnUse"
       x2="40"
       gradientTransform="matrix(1 0 0 -1 503.93261 656.69754)" />
    <linearGradient
       inkscape:collect="always"
       xlink:href="#linearGradient4351"
       id="linearGradient3447"
       y1="61"
       y2="47"
       gradientUnits="userSpaceOnUse"
       x2="0"
       gradientTransform="matrix(1 0 0 1 517.93261 578.69754)" />
    <linearGradient
       inkscape:collect="always"
       xlink:href="#linearGradient4300-8"
       id="linearGradient3452"
       y1="61"
       y2="3"
       gradientUnits="userSpaceOnUse"
       x2="0"
       gradientTransform="matrix(1 0 0 1 517.93261 578.69754)" />
  </defs>
  <metadata
     id="metadata3874">
    <rdf:RDF>
      <cc:Work
         rdf:about="">
        <dc:format>image/svg+xml</dc:format>
        <dc:type
           rdf:resource="http://purl.org/dc/dcmitype/StillImage" />
      </cc:Work>
    </rdf:RDF>
  </metadata>
  <g
     inkscape:label="Capa 1"
     inkscape:groupmode="layer"
     id="layer1"
     transform="matrix(1 0 0 1 -326 -534.3622)">
    <path
       style="fill:#0070ff;stroke-width:6;fill-opacity:1"
       id="rect5505"
       d="M 8 3 L 8 7 L 9 7 L 9 3 L 8 3 z M 10 4 L 10 7 L 11 7 L 11 4 L 10 4 z M 6 5 L 6 7 L 7 7 L 7 5 L 6 5 z M 12 5 L 12 7 L 13 7 L 13 5 L 12 5 z M 4 6 L 4 7 L 5 7 L 5 6 L 4 6 z M 14 6 L 14 7 L 15 7 L 15 6 L 14 6 z M 3 8 L 3 9 L 3 14 A 4 3.9893909 0 0 0 3 14.009766 A 4 3.9893909 0 0 0 7 18 L 4 18 L 4 19 L 15 19 L 15 18 L 12 18 A 4 3.9893909 0 0 0 16 14.009766 A 4 3.9893909 0 0 0 16 14 L 18 14 C 18.55401 14 19 13.55401 19 13 L 19 10 C 19 9.44599 18.55401 9 18 9 L 16 9 L 16 8 L 3 8 z M 4 9 L 15 9 L 15 10 L 15 13 L 15 14 A 3 3 0 0 1 12 17 L 7 17 A 3 3 0 0 1 4 14 L 4 9 z M 16 10 L 18 10 L 18 13 L 16 13 L 16 10 z "
       transform="matrix(1 0 0 1 326 534.3622)" />
    <rect
       style="fill:#0070ff;fill-opacity:1"
       id="rect405"
       width="1"
       height="1"
       x="334.125"
       y="543.36218" />
    <rect
       style="fill:#0070ff;fill-opacity:1"
       id="rect405-3"
       width="1"
       height="1"
       x="335.12262"
       y="544.35187" />
    <rect
       style="fill:#0070ff;fill-opacity:1"
       id="rect405-3-6"
       width="1"
       height="1"
       x="334.12891"
       y="545.35046" />
    <rect
       style="fill:#0070ff;fill-opacity:1"
       id="rect405-3-6-7"
       width="1"
       height="1"
       x="335.125"
       y="546.35046" />
    <rect
       style="fill:#0070ff;fill-opacity:1"
       id="rect405-3-6-5"
       width="1"
       height="1"
       x="334.13281"
       y="546.34656" />
    <rect
       style="fill:#0070ff;fill-opacity:1"
       id="rect516"
       width="0.97265625"
       height="0.203125"
       x="334.13281"
       y="546.22937" />
    <rect
       style="fill:#0070ff;fill-opacity:1"
       id="rect518"
       width="0.14453125"
       height="0.98046875"
       x="335.03906"
       y="546.35828" />
    <rect
       style="fill:#0070ff;fill-opacity:1"
       id="rect1126"
       width="0.9609375"
       height="0.109375"
       x="334.13281"
       y="543.27234" />
  </g>
</svg>
